!!!!SEGMENT:07Kokaji_c.krn
!!!OTL: 小鍛冶
!!!OPR:Eiga Banso Kyokusyu,jidai-geki,zenpen
!!!YOY:1929
!!!ONB:Daikakutou_no_mae
**kern
*clefG2
*k[]
*C:
*M2/4
=1
!LO:TX:a:B:t=Allegro
8r
8ee
4ee
=2
8r
8ee
4ee
=3
8r
16ddLL
16ddJJ
8ddL
8ddJ
=4
8ddL
8dd
8dd
8eeJ
=5
8eeL
8ee
8ee
8eeJ
=6
8eeL
8ee
8ee
8eeJ
=7
8eeL
8ee
8ee
8eeJ
=8
8eeL
8ee
8ee
8eeJ
=9
8ffL
(8ee
8qqff/)
8cc
8bJ
=10
16BLL
16cc
16cc
16ccJJ
8b
8r
=11
4aa
4bb
=12
8cccL
8bb
8aa
8bbJ
=13
8cccL
8bb
8aa
8bbJ
=14
8cccL
16cccL
16cccJJ
8bb
8r
=15
16cccLL
16cccJ
8bbJ
16cccLL
16cccJ
8bbJ
=16
8cccL
16cccL
16cccJJ
8bb
8r
=17
16cccLL
16cccJ
8bbJ
8cccL
16cccL
16bbJJ
=18
8cccL
16cccL
16cccJJ
8bb
8r
=19
16bbLL
16bb
16bb
16bbJJ
8bbL
8bbJ
=20
8bL
8ee
8bJ
8r
=21
16bbLL
16bb
16bb
16bbJJ
8bbL
8bbJ
=22
8bL
8ee
8bJ
8r
=23
8bL
8ee
8bJ
8r
=24
16bbLL
16bb
16bb
16bbJJ
8bb
8r
=25
16bbLL
16bbJ
8bbJ
16bbLL
16bbJ
8bbJ
=26
16bbLL
16bb
16bb
16bbJJ
8bb
8r
=27
8cccL
8eeeJ
8cccL
8bbJ
=28
16eeLL
16aa
16aa
16aaJJ
8bb
8r
=29
8eeeL
8cccJ
8r
8eee
=30
4ccc
8bb
8r
=31
4ccc
4r
=32
4ccc
4r
=33
4ccc
4ccc
=34
8cccL
16cccL
16cccJJ
8cccL
8cccJ
=35
8r
8eeeL
8ccc
8bbJ
=36
8aaL
16bbL
16aaJJ
8ffL
8eeJ
=37
8r
8gg
16ff#XLL
16ff#
16ff#
16eeJJ
=38
8ff#XL
8gg
8ff#J
8r
=39
8ff#XL
8ggJ
16ff#LL
16ff#
16ff#
16eeJJ
=40
8ff#XL
8ggJ
16ff#LL
16ff#
16ff#
16eeJJ
=41
8ff#XL
8ggJ
16ff#LL
16ff#
16ff#
16eeJJ
=42
8ccL
8ee
8cc
8bJ
=43
8r
16BLL
16aJJ
8aL
16BL
16bJJ
=44
8bL
16BL
16aJJ
8aL
16BL
16bJJ
=45
8bL
16BL
16bJJ
8bL
16BL
16bJJ
=46
8b
8r
4r
==
*-
!!!ENC: Yukiko Yoden
!!!END: 2023/06/11
